static/assets/svg/human/humanClothes/pants1_stickers/pants1_sticker15.svg

<svg class="bottomOverlay" width="86" height="380" viewBox="202.715 584.407 86.593 380.048" xmlns="http://www.w3.org/2000/svg" xmlns:xlink="http://www.w3.org/1999/xlink"><defs><pattern id="a" width="20" height="20" patternUnits="userSpaceOnUse" viewBox="0 0 100 100"><path d="M322.51 3.6l-89.35 76.5-33.94-13.531 12.79-33.407-25.88 25.813-1.87-38.594-12.78 35.25-16.82-35.5 2.53 38.563-28.87-26.313 17 34.438-31.38 12.875L8.54 9.131l42.466 114.53-27.406-16.62 22.719 30.53-38.844-6.13 33.719 19.72-37.594 9.06 38.938 5.5-29.844 22.66 37.375-9.66-16.938 32.38 29.407-23.19-1.094 36.47 15.5-31.03 79.846 130.5 41.4-.22 66.6-121.25 12.93 25.84-1.12-36.46 29.41 23.15-16.94-32.37 37.41 9.68-29.85-22.68 38.91-5.47-37.6-9.06 33.75-19.72-38.84 6.12 22.69-30.53-27.53 16.72 34.5-124z" stroke="maroon" stroke-width="7.2" fill="red" transform="matrix(.26108 0 0 .26924 3.858 2.876)"/><path d="M195.56 314.35l-34.68-.39-73.149-119.24L24.099 28.34l88.411 60.428 59.91-23.261 61.8 25.44 75.4-66.504-48.91 168.47-65.15 121.44z" fill="#7e7e7e" transform="matrix(.26108 0 0 .26924 3.858 2.876)"/><path d="M136.75 557.89a41.619 40.628 0 1 1-83.24 0 41.619 40.628 0 1 1 83.24 0z" transform="matrix(.1826 0 0 .1961 17.702 -61.626)" fill="#500"/><path d="M136.75 557.89a41.619 40.628 0 1 1-83.24 0 41.619 40.628 0 1 1 83.24 0z" transform="matrix(.15449 0 0 .16592 20.5 -45.183)" fill="#fff"/><path d="M94.622 496.98a17.177 16.574 0 1 1-34.353 0 17.177 16.574 0 1 1 34.353 0z" transform="matrix(.26108 0 0 .26924 15.54 -84.51)" fill="#a00"/><path d="M107.02 675.81a16.846 15.855 0 1 1-33.692 0 16.846 15.855 0 1 1 33.692 0z" transform="matrix(.12262 0 0 .13538 24.68 -42.278)"/><path d="M165.15 199.38c7.5-9.84-2.05-32.67-19.1-45.66-17.04-12.98-41.59-16.12-49.082-6.28-7.497 9.84 18.062 12.91 35.112 25.9 17.05 12.98 25.57 35.88 33.07 26.04z" fill="maroon" transform="matrix(.26108 0 0 .26924 .881 -1.018)"/><path d="M154.36 180.36c4.52-8.27-5.23-24.4-19.51-32.26-14.27-7.87-33.08-7.46-37.603.81-4.525 8.27 15.033 7.69 29.313 15.55 14.28 7.87 23.27 24.17 27.8 15.9z" fill="#500" transform="matrix(.26108 0 0 .26924 .881 -1.018)"/><path d="M72.918 122.48c-3.374-63.383 26.984 1.74-39.809-79.486l66.693 48.511-26.884 30.975zM271.78 121.82c3.38-63.381-28.38 2.44 27.9-80.186L244.9 90.847l26.88 30.973z" fill="maroon" transform="matrix(.26108 0 0 .26924 3.858 2.876)"/><path d="M79.136 113.78c-2.453-45.506 19.613 1.24-28.934-57.067L98.676 91.54l-19.54 22.24zM263.63 112.03c2.3-44.003-19.31 1.69 18.98-55.668l-37.27 34.162 18.29 21.506z" fill="#500" transform="matrix(.26108 0 0 .26924 3.858 2.876)"/><path d="M196.3 320.09l-37.11-.02-7.85-11.88c17.07-8.44 40.18-7.99 52.22-.27l-7.26 12.17z" transform="matrix(.26108 0 0 .26924 3.858 2.876)"/><g><path d="M538.23 633.57l-61.24-99.62 46.5 13.16 14.74 86.46z" fill="#fff" transform="matrix(.26108 0 0 .26924 -98.402 -86.966)"/><path d="M534.61 617.34l-43.33-79.39 32.42 9.5 10.91 69.89z" fill="#e6e6e6" transform="matrix(.26108 0 0 .26924 -98.402 -86.966)"/></g><g><path d="M605.93 636.77l5.73-88.18 48.82-14.8-54.55 102.98z" fill="#fff" transform="matrix(.26105 .0044 -.00426 .2692 -97.715 -90.296)"/><path d="M607.41 618.92l4.44-70.25 39.43-12.22-43.87 82.47z" fill="#e6e6e6" transform="matrix(.26105 .0044 -.00426 .2692 -97.715 -90.296)"/></g><g><path d="M136.75 557.89a41.619 40.628 0 1 1-83.24 0 41.619 40.628 0 1 1 83.24 0z" transform="matrix(-.1826 0 0 .1961 80.427 -61.585)" fill="#500"/><path d="M136.75 557.89a41.619 40.628 0 1 1-83.24 0 41.619 40.628 0 1 1 83.24 0z" transform="matrix(-.15449 0 0 .16592 77.63 -45.14)" fill="#fff"/><path d="M94.622 496.98a17.177 16.574 0 1 1-34.353 0 17.177 16.574 0 1 1 34.353 0z" transform="matrix(-.26108 0 0 .26924 82.589 -84.47)" fill="#a00"/><path d="M107.02 675.81a16.846 15.855 0 1 1-33.692 0 16.846 15.855 0 1 1 33.692 0z" transform="matrix(-.12262 0 0 .13538 73.451 -42.235)"/><path d="M203.96 197.53c-7.5-9.84 2.05-32.67 19.1-45.65 17.05-12.99 41.59-16.13 49.08-6.29 7.5 9.84-18.06 12.92-35.11 25.9-17.04 12.99-25.57 35.88-33.07 26.04z" fill="maroon" transform="matrix(.26108 0 0 .26924 .881 -.48)"/><path d="M214.75 178.51c-4.52-8.27 5.23-24.4 19.51-32.26s33.08-7.46 37.6.81c4.53 8.27-15.03 7.7-29.31 15.56s-23.27 24.16-27.8 15.89z" fill="#500" transform="matrix(.26108 0 0 .26924 .881 -.48)"/></g></pattern><pattern id="b" patternTransform="matrix(2.39434 -.7694 .65163 2.02786 170.031 789.72)" xlink:href="#a"/></defs><path d="M210.836 792.118c0 15.899-9.514 40.757-9.514 57.803 0 9.418 1.465 17.872 1.465 26.745 0 16.413 2.194 32.922 2.194 49.176 0 5.993-2.194 11.282-2.194 15.529 0 5.853.731 10.812.731 14.667.974.863 5.123 4.915 5.123 5.176 2.234.863 1.464-.742 1.464-5.176 3.378-.863 8.349-5.177 14.635-5.177 2.407-1.974 7.139-.862 9.514-.862 0-19.489 5.855-40.503 5.855-61.255 0-9.027 2.195-15.744 2.195-22.431v-18.117-11.216c0 4.039.732 7.176.732 10.353v14.666c0 4.402-1.464 9.384-1.464 11.216v29.333c0 6.405 2.927 10.461 2.927 15.529 0 3.796.732 7.138.732 10.353 0 6.103.732 10.388.732 15.529 0 3.7 7.174 3.451 9.512 3.451 2.066 0 6.205.413 7.318 1.726h8.782c.731-4.811 7.317-14.119 7.317-19.843 4.235-10.846-.731-22.086-.731-31.059 0-10.642 2.195-18.132 2.195-27.607 0-3.612 2.219-25.02 2.927-25.02v-14.666c0-5.65-1.463-11.098-1.463-17.255 0-3.637-1.464-4.239-1.464-7.765-.732-1.652-2.195-5.385-2.195-8.627-.733-3.83-2.196-3.39-2.196-6.039-4.316 0-7.31-3.451-7.317-3.451h-9.514c-4.688 0-7.584-.863-10.977-.863-2.348 1.907-7.215.863-9.512.863h-5.855c-4.95 4.973-6.98.863-9.513.863-3.368-.863-4.078-2.589-7.318-2.589-2.708 0-4.39 2.962-4.39 5.177z" class="clothes" stroke="#000" fill="url(#b)"/></svg>

<svg class="bottomOverlay" width="86" height="380" viewBox="202.715 584.407 86.5933 380.048" preserveAspectRatio="xMidYMid meet" xmlns="http://www.w3.org/2000/svg" xmlns:xlink="http://www.w3.org/1999/xlink">
  <defs id="svgEditorDefs">
    <path id="svgEditorClosePathDefs" fill="moccasin" style="stroke-width: 0px; stroke: none; fill-opacity: 1;" class="clothes"/>
    <pattern id="pattern-0" x="0" y="0" width="20" height="20" patternUnits="userSpaceOnUse" viewBox="0 0 100 100">
      <g transform="matrix(0.261079, 0, 0, 0.269237, 2.697473, -0.474382)">
        <g id="g2333" transform="translate(4.4442 12.444)">
          <path id="path2942" style="stroke:#800000;stroke-width:7.2;fill:#ff0000" d="m322.51 3.6l-89.35 76.5-33.94-13.531 12.79-33.407-25.88 25.813-1.87-38.594-12.78 35.25-16.82-35.5 2.53 38.563-28.87-26.313 17 34.438-31.38 12.875-105.4-70.563 42.466 114.53-27.406-16.62 22.719 30.53-38.844-6.13 33.719 19.72-37.594 9.06 38.938 5.5-29.844 22.66 37.375-9.66-16.938 32.38 29.407-23.19-1.094 36.47 15.5-31.03 79.846 130.5 41.4-0.22 66.6-121.25 12.93 25.84-1.12-36.46 29.41 23.15-16.94-32.37 37.41 9.68-29.85-22.68 38.91-5.47-37.6-9.06 33.75-19.72-38.84 6.12 22.69-30.53-27.53 16.72 34.5-124z"/>
          <path id="path2948" d="m195.56 314.35l-34.68-0.39-73.149-119.24-63.632-166.38 88.411 60.428 59.91-23.261 61.8 25.44 75.4-66.504-48.91 168.47-65.15 121.44z" style="fill: rgb(126, 126, 126);"/>
          <g id="g1912" transform="translate(-11.4 -14.462)">
            <path id="path2950" style="fill:#550000" d="m136.75 557.89a41.619 40.628 0 1 1 -83.24 0 41.619 40.628 0 1 1 83.24 0z" transform="matrix(.69937 0 0 .72837 64.428 -225.11)"/>
            <path id="path2952" style="fill:#ffffff" d="m136.75 557.89a41.619 40.628 0 1 1 -83.24 0 41.619 40.628 0 1 1 83.24 0z" transform="matrix(.59173 0 0 .61626 75.145 -164.04)"/>
            <path id="path2954" style="fill:#aa0000" d="m94.622 496.98a17.177 16.574 0 1 1 -34.353 0 17.177 16.574 0 1 1 34.353 0z" transform="translate(56.148 -310.11)"/>
            <path id="path2956" style="fill:#000000" d="m107.02 675.81a16.846 15.855 0 1 1 -33.692 0 16.846 15.855 0 1 1 33.692 0z" transform="matrix(.46967 0 0 .50282 91.153 -153.25)"/>
            <path id="path2958" style="fill:#800000" d="m165.15 199.38c7.5-9.84-2.05-32.67-19.1-45.66-17.04-12.98-41.59-16.12-49.082-6.28-7.497 9.84 18.062 12.91 35.112 25.9 17.05 12.98 25.57 35.88 33.07 26.04z"/>
            <path id="path2960" style="fill:#550000" d="m154.36 180.36c4.52-8.27-5.23-24.4-19.51-32.26-14.27-7.87-33.08-7.46-37.603 0.81-4.525 8.27 15.033 7.69 29.313 15.55 14.28 7.87 23.27 24.17 27.8 15.9z"/>
          </g>
          <path id="path2962" style="fill:#800000" d="m72.918 122.48c-3.374-63.383 26.984 1.74-39.809-79.486l66.693 48.511-26.884 30.975z"/>
          <path id="path2964" style="fill:#800000" d="m271.78 121.82c3.38-63.381-28.38 2.44 27.9-80.186l-54.78 49.213 26.88 30.973z"/>
          <path id="path2966" style="fill:#550000" d="m79.136 113.78c-2.453-45.506 19.613 1.24-28.934-57.067l48.474 34.827-19.54 22.24z"/>
          <path id="path2968" style="fill:#550000" d="m263.63 112.03c2.3-44.003-19.31 1.69 18.98-55.668l-37.27 34.162 18.29 21.506z"/>
          <path id="path2974" style="fill:#000000" d="m196.3 320.09l-37.11-0.02-7.85-11.88c17.07-8.44 40.18-7.99 52.22-0.27l-7.26 12.17z"/>
          <g id="g3023" transform="translate(-391.68 -333.69)">
            <path id="path2970" style="fill:#ffffff" d="m538.23 633.57l-61.24-99.62 46.5 13.16 14.74 86.46z"/>
            <path id="path2976" style="fill:#e6e6e6" d="m534.61 617.34l-43.33-79.39 32.42 9.5 10.91 69.89z"/>
          </g>
          <g id="g3019" transform="matrix(.99987 .016335 -.016335 .99987 -389.05 -346.06)">
            <path id="path2972" style="fill:#ffffff" d="m605.93 636.77l5.73-88.18 48.82-14.8-54.55 102.98z"/>
            <path id="path2978" style="fill:#e6e6e6" d="m607.41 618.92l4.44-70.25 39.43-12.22-43.87 82.47z"/>
          </g>
          <g id="g1920" transform="translate(-11.4 -12.462)">
            <path id="path1900" style="fill:#550000" d="m136.75 557.89a41.619 40.628 0 1 1 -83.24 0 41.619 40.628 0 1 1 83.24 0z" transform="matrix(-.69937 0 0 .72837 304.68 -226.96)"/>
            <path id="path1902" style="fill:#ffffff" d="m136.75 557.89a41.619 40.628 0 1 1 -83.24 0 41.619 40.628 0 1 1 83.24 0z" transform="matrix(-.59173 0 0 .61626 293.97 -165.88)"/>
            <path id="path1904" style="fill:#aa0000" d="m94.622 496.98a17.177 16.574 0 1 1 -34.353 0 17.177 16.574 0 1 1 34.353 0z" transform="matrix(-1 0 0 1 312.96 -311.96)"/>
            <path id="path1906" style="fill:#000000" d="m107.02 675.81a16.846 15.855 0 1 1 -33.692 0 16.846 15.855 0 1 1 33.692 0z" transform="matrix(-.46967 0 0 .50282 277.96 -155.09)"/>
            <path id="path1908" style="fill:#800000" d="m203.96 197.53c-7.5-9.84 2.05-32.67 19.1-45.65 17.05-12.99 41.59-16.13 49.08-6.29 7.5 9.84-18.06 12.92-35.11 25.9-17.04 12.99-25.57 35.88-33.07 26.04z"/>
            <path id="path1910" style="fill:#550000" d="m214.75 178.51c-4.52-8.27 5.23-24.4 19.51-32.26s33.08-7.46 37.6 0.81c4.53 8.27-15.03 7.7-29.31 15.56s-23.27 24.16-27.8 15.89z"/>
          </g>
        </g>
      </g>
    </pattern>
    <pattern id="pattern-0-0" patternTransform="matrix(2.394343, -0.7694, 0.651631, 2.027859, 170.031265, 789.719727)" xlink:href="#pattern-0"/>
  </defs>
  <path d="M 210.836 792.118 C 210.836 808.017 201.322 832.875 201.322 849.921 C 201.322 859.339 202.787 867.793 202.787 876.666 C 202.787 893.079 204.981 909.588 204.981 925.842 C 204.981 931.835 202.787 937.124 202.787 941.371 C 202.787 947.224 203.518 952.183 203.518 956.038 C 204.492 956.901 208.641 960.953 208.641 961.214 C 210.875 962.077 210.105 960.472 210.105 956.038 C 213.483 955.175 218.454 950.861 224.74 950.861 C 227.147 948.887 231.879 949.999 234.254 949.999 C 234.254 930.51 240.109 909.496 240.109 888.744 C 240.109 879.717 242.304 873 242.304 866.313 C 242.304 859.699 242.304 853.947 242.304 848.196 C 242.304 843.882 242.304 840.431 242.304 836.98 C 242.304 841.019 243.036 844.156 243.036 847.333 C 243.036 852.797 243.036 857.398 243.036 861.999 C 243.036 866.401 241.572 871.383 241.572 873.215 C 241.572 878.104 241.572 882.13 241.572 886.156 C 241.572 892.195 241.572 897.372 241.572 902.548 C 241.572 908.953 244.499 913.009 244.499 918.077 C 244.499 921.873 245.231 925.215 245.231 928.43 C 245.231 934.533 245.963 938.818 245.963 943.959 C 245.963 947.659 253.137 947.41 255.475 947.41 C 257.541 947.41 261.68 947.823 262.793 949.136 C 266.208 949.136 268.892 949.136 271.575 949.136 C 272.306 944.325 278.892 935.017 278.892 929.293 C 283.127 918.447 278.161 907.207 278.161 898.234 C 278.161 887.592 280.356 880.102 280.356 870.627 C 280.356 867.015 282.575 845.607 283.283 845.607 C 283.283 839.464 283.283 836.139 283.283 830.941 C 283.283 825.291 281.82 819.843 281.82 813.686 C 281.82 810.049 280.356 809.447 280.356 805.921 C 279.624 804.269 278.161 800.536 278.161 797.294 C 277.428 793.464 275.965 793.904 275.965 791.255 C 271.649 791.255 268.655 787.804 268.648 787.804 C 264.989 787.804 262.062 787.804 259.134 787.804 C 254.446 787.804 251.55 786.941 248.157 786.941 C 245.809 788.848 240.942 787.804 238.645 787.804 C 236.205 787.804 234.497 787.804 232.79 787.804 C 227.84 792.777 225.81 788.667 223.277 788.667 C 219.909 787.804 219.199 786.078 215.959 786.078 C 213.251 786.078 211.569 789.04 211.569 791.255 Z" style="stroke: black; fill: url(#pattern-0-0);" class="clothes"/>
  <g transform="matrix(0.136585, 0, 0, 0.136585, 353.337769, 791.945129)">
    <g id="layer1" transform="matrix(1, 0, 0, 1, 0, -3.452308)">
      <g id="g4615"/>
    </g>
  </g>
</svg>
